!!!!SEGMENT: pl-wtm--r-400-m_moniuszko-stanislaw--ojcze-nasz.krn
!!!id: 18xx:2873
!!!COM: Moniuszko, Stanisław
!!!COM-rism: pe30008351
!!!CDT: 1819/05/05-1872/06/04
!!!CNT: Polish
!!!OTL: Ojcze Nasz
!!!PDT:
!!!SMS-siglum: PL-Wtm
!!!SMS-shelfmark: R 400/M
!!!NIFC-rismID: 1001098785
!!!URL-scan: http://repozytorium.nifc.pl/skany/pl-wtm-nut--r400m
!!!ONB-nifc:
!!!SMS-variant:
!!!SMS-altvar:
!!!OMD: Moderato.
**kern	**dynam	**kern	**dynam	**kern	**dynam	**kern	**dynam	**kern	**dynam	**kern	**dynam	**kern	**dynam	**kern	**dynam	**kern	**dynam	**kern	**dynam	**kern	**dynam	**kern	**dynam	**kern	**dynam
*part13	*part13	*part12	*part12	*part11	*part11	*part10	*part10	*part9	*part9	*part8	*part8	*part7	*part7	*part6	*part6	*part5	*part5	*part4	*part4	*part3	*part3	*part2	*part2	*part1	*part1
*staff13	*	*staff12	*	*staff11	*	*staff10	*	*staff9	*	*staff8	*	*staff7	*	*staff6	*	*staff5	*	*staff4	*	*staff3	*	*staff2	*	*staff1	*
*I"Cb|	*	*I"Vcele	*	*I"Viole.	*	*	*	*I"V. 2	*	*	*	*I"V. 1	*	*I"Ophicleide.	*	*I"in E. Corni	*	*I"Fagotto.	*	*I"in A Clarinetti	*	*I"Oboe	*	*I"Flauto.	*
*clefF4	*	*clefF4	*	*clefC3	*	*clefG2	*	*clefG2	*	*clefG2	*	*clefG2	*	*clefF4	*	*clefG2	*	*clefF4	*	*clefG2	*	*clefG2	*	*clefG2	*
*ITrd0c0	*	*	*	*	*	*	*	*	*	*	*	*	*	*	*	*ITrd5c8	*	*	*	*ITrd2c3	*	*	*	*	*
*k[f#c#g#d#]	*	*k[f#c#g#d#]	*	*k[f#c#g#d#]	*	*k[f#c#g#d#]	*	*k[f#c#g#d#]	*	*k[f#c#g#d#]	*	*k[f#c#g#d#]	*	*k[f#c#g#d#]	*	*k[f#c#g#d#]	*	*k[f#c#g#d#]	*	*k[f#c#g#d#]	*	*k[f#c#g#d#]	*	*k[f#c#g#d#]	*
*M2/2	*	*M2/2	*	*M2/2	*	*M2/2	*	*M2/2	*	*M2/2	*	*M2/2	*	*M2/2	*	*M2/2	*	*M2/2	*	*M2/2	*	*M2/2	*	*M2/2	*
*met(c|)	*	*met(c|)	*	*met(c|)	*	*met(c|)	*	*met(c|)	*	*met(c|)	*	*met(c|)	*	*met(c|)	*	*met(c|)	*	*met(c|)	*	*met(c|)	*	*met(c|)	*	*met(c|)	*
=1	=1	=1	=1	=1	=1	=1	=1	=1	=1	=1	=1	=1	=1	=1	=1	=1	=1	=1	=1	=1	=1	=1	=1	=1	=1
!	!	!	!	!	!	!	!	!	!	!	!	!	!	!	!	!	!	!	!	!	!	!	!	!LO:TX:t=P:problem:all\middle or right:global	!
!	!	!	!	!	!	!LO:TX:t=P:problem:klucz i znaki zapisane odnośnikiem do vl 1	!	!LO:TX:t=P:problem:klucz i znaki zapisane odnośnikiem do vl 1	!	!LO:TX:t=P:problem:klucz i znaki zapisane odnośnikiem do vl 1	!	!	!	!	!	!	!	!	!	!	!	!	!	!LO:TX:t=P:problem:znaki: f# zamiast ff#, g# zamiast gg#	!
!LO:TX:t=P:problem:klucz i znaki zapisane odnośnikiem do vlc	!LO:DY:rj	!	!LO:DY:rj	!	!	!LO:TX:t=P:problem:znaki: f# zamiast ff#, g# zamiast gg#	!	!LO:TX:t=P:problem:znaki: f# zamiast ff#, g# zamiast gg#	!	!LO:TX:t=P:problem:znaki: f# zamiast ff#, g# zamiast gg#	!	!LO:TX:t=P:problem:znaki: f# zamiast ff#, g# zamiast gg#	!	!	!	!	!	!	!	!LO:TX:t=P:problem:znaki: f# zamiast ff#	!	!LO:TX:t=P:problem:znaki: f# zamiast ff#, g# zamiast gg#	!	!LO:TX:a:Bi:t=Introduction.	!
[1E	p	1EE	p	1ryy	.	1ryy	.	1ryy	.	1ryy	.	1ryy	.	1ryy	.	1ryy	.	1ryy	.	1ryy	.	1ryy	.	1ryy	.
=2	=2	=2	=2	=2	=2	=2	=2	=2	=2	=2	=2	=2	=2	=2	=2	=2	=2	=2	=2	=2	=2	=2	=2	=2	=2
*rep	*	*	*	*	*	*	*	*	*	*	*	*	*	*	*	*	*	*	*	*	*	*	*	*	*
!	!	!	!	!	!	!	!	!	!	!LO:TX:t=P:problem:t. 2-7 zapisane w partii vl 1.1	!	!LO:TX:t=P:problem:t. 2-7 zapisane w partii vl 1.2	!	!	!	!	!	!	!	!	!	!	!	!	!
1E_	.	1BB	.	2r	p	1ryy	.	2r	.	1ryy	.	2r	.	1ryy	.	1ryy	.	1ryy	.	1ryy	.	1ryy	.	1ryy	.
!	!	!	!	!	!	!	!	!	!LO:DY:rj	!LO:TX:a:t=2do	!	!LO:TX:a:t=Imo:color=red	!	!	!	!	!	!	!	!	!	!	!	!	!
.	.	.	.	2G#/	.	.	.	[2G#/	p	.	.	4r	.	.	.	.	.	.	.	.	.	.	.	.	.
.	.	.	.	.	.	.	.	.	.	.	.	4e/	p	.	.	.	.	.	.	.	.	.	.	.	.
*Xrep	*	*	*	*	*	*	*	*	*	*	*	*	*	*	*	*	*	*	*	*	*	*	*	*	*
=3	=3	=3	=3	=3	=3	=3	=3	=3	=3	=3	=3	=3	=3	=3	=3	=3	=3	=3	=3	=3	=3	=3	=3	=3	=3
*rep	*	*2\right	*	*	*	*	*	*	*	*	*	*	*	*	*	*	*	*	*	*	*	*	*	*	*
1E_	.	2.C#\	.	1r	.	1ryy	.	4G#/]	.	1ryy	.	2e/	.	1ryy	.	1ryy	.	1ryy	.	1ryy	.	1ryy	.	1ryy	.
.	.	.	.	.	.	.	.	2.A/	.	.	.	.	.	.	.	.	.	.	.	.	.	.	.	.	.
.	.	.	.	.	.	.	.	.	.	.	.	[>2f#/	.	.	.	.	.	.	.	.	.	.	.	.	.
.	.	4D#\	.	.	.	.	.	.	.	.	.	.	.	.	.	.	.	.	.	.	.	.	.	.	.
*Xrep	*	*	*	*	*	*	*	*	*	*	*	*	*	*	*	*	*	*	*	*	*	*	*	*	*
=4	=4	=4	=4	=4	=4	=4	=4	=4	=4	=4	=4	=4	=4	=4	=4	=4	=4	=4	=4	=4	=4	=4	=4	=4	=4
*rep	*	*	*	*	*	*	*	*	*	*	*	*	*	*	*	*	*	*	*	*	*	*	*	*	*
1E_	.	2.E\	.	1ryy	.	1ryy	.	2G#/	.	1ryy	.	4f#/]	.	1ryy	.	1ryy	.	1ryy	.	1ryy	.	1ryy	.	1ryy	.
.	.	.	.	.	.	.	.	.	.	.	.	4e/	.	.	.	.	.	.	.	.	.	.	.	.	.
.	.	.	.	.	.	.	.	2B/	.	.	.	[2g#/	.	.	.	.	.	.	.	.	.	.	.	.	.
.	.	4G#\	.	.	.	.	.	.	.	.	.	.	.	.	.	.	.	.	.	.	.	.	.	.	.
*Xrep	*	*	*	*	*	*	*	*	*	*	*	*	*	*	*	*	*	*	*	*	*	*	*	*	*
=5	=5	=5	=5	=5	=5	=5	=5	=5	=5	=5	=5	=5	=5	=5	=5	=5	=5	=5	=5	=5	=5	=5	=5	=5	=5
*rep	*	*	*	*	*	*	*	*	*	*	*	*	*	*	*	*	*	*	*	*	*	*	*	*	*
1E_	.	2A\	.	1ryy	.	1ryy	.	2.c#/	.	1ryy	.	4g#/]	.	1ryy	.	1ryy	.	1ryy	.	1ryy	.	1ryy	.	1ryy	.
.	.	.	.	.	.	.	.	.	.	.	.	4f#/	.	.	.	.	.	.	.	.	.	.	.	.	.
.	.	2F#\	.	.	.	.	.	.	.	.	.	[2a/	.	.	.	.	.	.	.	.	.	.	.	.	.
.	.	.	.	.	.	.	.	4d#/	.	.	.	.	.	.	.	.	p	.	.	.	.	.	.	.	.
*Xrep	*	*	*	*	*	*	*	*	*	*	*	*	*	*	*	*	*	*	*	*	*	*	*	*	*
=6	=6	=6	=6	=6	=6	=6	=6	=6	=6	=6	=6	=6	=6	=6	=6	=6	=6	=6	=6	=6	=6	=6	=6	=6	=6
*	*	*	*	*	*	*	*	*	*	*	*	*	*	*	*	*^	*	*	*	*	*	*	*	*	*
*rep	*	*	*	*	*	*	*	*	*	*	*	*	*	*	*	*	*	*	*	*	*	*	*	*	*	*
!	!	!	!	!	!	!	!	!	!	!LO:TX:a:t=Vl 2:color=red	!	!	!	!	!	!	!	!	!	!	!	!	!	!	!	!
1E_	.	4E\	.	1ryy	.	1ryy	.	[1e	.	2r	.	4a/]	.	1ryy	.	[1e	[1E	.	1ryy	.	1ryy	.	1ryy	.	1ryy	.
.	.	4r	.	.	.	.	.	.	.	.	.	4g#/	.	.	.	.	.	.	.	.	.	.	.	.	.	.
.	.	2r	.	.	.	.	.	.	.	4G#/	.	[>2b/	.	.	.	.	.	.	.	.	.	.	.	.	.	.
.	.	.	.	.	.	.	.	.	.	4B/	.	.	.	.	.	.	.	.	.	.	.	.	.	.	.	.
*Xrep	*	*	*	*	*	*	*	*	*	*	*	*	*	*	*	*	*	*	*	*	*	*	*	*	*	*
=7	=7	=7	=7	=7	=7	=7	=7	=7	=7	=7	=7	=7	=7	=7	=7	=7	=7	=7	=7	=7	=7	=7	=7	=7	=7	=7
*	*	*	*	*	*	*	*	*	*	*	*	*	*	*	*	*	*	*	*	*	*^	*	*	*	*	*
*rep	*	*	*	*	*	*	*	*	*	*	*	*	*	*	*	*	*	*	*	*	*	*	*	*	*	*	*
!	!	!	!	!	!	!	!	!	!	!	!	!	!	!	!	!	!LO:TX:b:t=P:problem:brak kontynuacji ligatury	!	!	!	!	!	!	!	!	!	!
1E]	.	1r	.	1ryy	.	1ryy	.	2.e/]	.	2.c#/	.	4b/]	.	1ryy	.	4e/]	1E_	.	1ryy	.	2r	1r	.	1ryy	.	1ryy	.
.	.	.	.	.	.	.	.	.	.	.	.	4a/	.	.	.	4r	.	.	.	.	.	.	.	.	.	.	.
!	!	!	!	!	!	!	!	!	!	!	!	!	!	!	!	!	!	!	!	!	!	!	!LO:DY:a:rj	!	!	!	!
.	.	.	.	.	.	.	.	.	.	.	.	2cc#/	.	.	.	2r	.	.	.	.	2a/	.	p	.	.	.	.
.	.	.	.	.	.	.	.	4f#/	.	4d#/	.	.	.	.	.	.	.	.	.	.	.	.	.	.	.	.	.
*Xrep	*	*	*	*	*	*	*	*	*	*	*	*	*	*	*	*	*	*	*	*	*	*	*	*	*	*	*
!!LO:PB:g=original
=8	=8	=8	=8	=8	=8	=8	=8	=8	=8	=8	=8	=8	=8	=8	=8	=8	=8	=8	=8	=8	=8	=8	=8	=8	=8	=8	=8
*	*	*	*	*	*	*	*	*	*	*	*	*	*	*	*	*	*2\right	*	*	*	*	*	*	*	*	*	*
!	!	!	!	!	!	!	!	!	!	!LO:TX:a:t=2do	!	!LO:TX:a:t=1mo	!	!	!	!LO:TX:t=P:problem:zbędny łuk	!	!	!	!	!	!	!	!	!	!	!
[1E	.	[>1EE	.	2r	.	1r	.	2.g#/	.	2.e/	.	4cc#\	.	1r	.	2e/	2E\]	.	2r	.	2.g#/	1r	.	1ryy	.	1ryy	.
.	.	.	.	.	.	.	.	.	.	.	.	4b\	.	.	.	.	.	.	.	.	.	.	.	.	.	.	.
*	*	*	*	*	*	*	*	*	*	*	*	*2\right	*	*	*	*	*	*	*2\right	*	*	*	*	*	*	*	*
!	!	!	!	!	!LO:DY:rj	!	!	!	!	!	!	!	!	!	!	!	!	!	!	!LO:DY:rj	!	!	!	!	!	!	!
.	.	.	.	[>2E^/	p	.	.	.	.	.	.	[2ee\	.	.	.	2r	2ryy	.	[2E^\	p	.	.	.	.	.	.	.
.	.	.	.	.	.	.	.	4a/	.	4c#/	.	.	.	.	.	.	.	.	.	.	4a/	.	p	.	.	.	.
*	*	*	*	*	*	*	*	*	*	*	*	*	*	*	*	*v	*v	*	*	*	*	*	*	*	*	*	*
=9	=9	=9	=9	=9	=9	=9	=9	=9	=9	=9	=9	=9	=9	=9	=9	=9	=9	=9	=9	=9	=9	=9	=9	=9	=9	=9
*rep	*	*rep	*	*	*	*	*	*	*	*	*	*	*	*	*	*	*	*	*	*	*2\right	*	*	*	*	*
1E_	.	1EE_>	.	(4E/]	.	1r	.	2g#/	.	2.B/	.	2ee\]	.	1r	.	1ryy	.	(4E\]	.	2g#/	(2.B\	.	1ryy	.	1ryy	.
.	.	.	.	4D#/)	.	.	.	.	.	.	.	.	.	.	.	.	.	4D#\	.	.	.	.	.	.	.	.
.	.	.	.	[2F#/	.	.	.	[2f#/	.	.	.	4dd#\	.	.	.	.	.	[2F#\)	.	[2f#/	.	.	.	.	.	.
.	.	.	.	.	.	.	.	.	.	4A/	.	4cc#\	.	.	.	.	.	.	.	.	4A\	.	.	.	.	.
*Xrep	*	*Xrep	*	*	*	*	*	*	*	*	*	*	*	*	*	*	*	*	*	*	*	*	*	*	*	*
=10	=10	=10	=10	=10	=10	=10	=10	=10	=10	=10	=10	=10	=10	=10	=10	=10	=10	=10	=10	=10	=10	=10	=10	=10	=10	=10
*rep	*	*rep	*	*	*	*	*	*	*	*	*	*	*	*	*	*	*	*	*	*	*	*	*	*	*	*
1E_	.	1EE]	.	4F#/]	.	1r	.	(4f#/]	.	4G#/	.	2.b\	.	1r	.	1ryy	.	(4F#\]	.	(<4f#/]	4G#\)	.	1ryy	.	1r	.
.	.	.	.	4E/	.	.	.	4g#/)	.	4r	.	.	.	.	.	.	.	4E\)	.	4g#/)	4r	.	.	.	.	.
.	.	.	.	[2G#/	.	.	.	[2e/	.	2r	.	.	.	.	.	.	.	[2G#\	.	[2e/	2r	.	.	.	.	.
.	.	.	.	.	.	.	.	.	.	.	.	4cc#\	.	.	.	.	.	.	.	.	.	.	.	.	.	p
*Xrep	*	*Xrep	*	*	*	*	*	*	*	*	*	*	*	*	*	*	*	*	*	*	*	*	*	*	*	*
=11	=11	=11	=11	=11	=11	=11	=11	=11	=11	=11	=11	=11	=11	=11	=11	=11	=11	=11	=11	=11	=11	=11	=11	=11	=11	=11
1E_	.	4EE/	.	4G#/]	.	1r	.	(4e/]	.	1B	.	4b\	.	1r	.	1r	.	(4G#\]	.	(<4e/]	1r	.	1r	.	([1bb	.
.	.	4r	.	4F#/	.	.	.	4f#/)	.	.	.	2a\	.	.	.	.	.	4F#\)	.	4f#/)	.	.	.	.	.	.
.	.	2r	.	2A/	.	.	.	2d#/	.	.	.	.	.	.	.	.	.	(2A\	.	2d#/	.	.	.	.	.	.
.	.	.	.	.	.	.	.	.	.	.	.	4f#\	.	.	p	.	p	.	.	.	.	.	.	p	.	.
=12	=12	=12	=12	=12	=12	=12	=12	=12	=12	=12	=12	=12	=12	=12	=12	=12	=12	=12	=12	=12	=12	=12	=12	=12	=12	=12
1E^_	.	[y1EE^	.	4G#/	.	4r	.	2.e/	.	4b\	.	2.e/	.	[>1EE^>	.	2.E^/	.	4G#\)	.	(1e	1r	.	1ee	.	4bb\]	.
.	.	.	.	[>2.B/	.	[2.B/	.	.	.	4g#/	.	.	.	.	.	.	.	4r	.	.	.	.	.	.	4gg#\	.
!	!	!LO:TX:t=Col Ophicleide	!	!	!	!	!	!	!	!	!	!	!	!	!	!	!	!	!	!	!	!	!	!	!	!
.	.	.	.	.	.	.	.	.	.	2e/	.	.	.	.	.	.	.	2r	.	.	.	.	.	.	4ee\	.
.	.	.	.	.	.	.	.	4a/	.	.	.	4c#/	.	.	.	4r	.	.	.	.	.	.	.	.	4aa\)	.
=13	=13	=13	=13	=13	=13	=13	=13	=13	=13	=13	=13	=13	=13	=13	=13	=13	=13	=13	=13	=13	=13	=13	=13	=13	=13	=13
*	*	*	*	*	*	*	*	*	*	*	*	*	*	*	*	*	*	*	*	*	*	*	*	*	*2\right	*
4E\]	.	(y4EE/]yy	.	1B_>	.	2B/]	.	2.g#/	.	[1B	.	2.B/	.	(4EE/]	.	1ryy	.	1r	.	2.B/	1r	.	[1b	.	(2.gg#\	.
4D#\	.	4DD#/)yy	.	.	.	.	.	.	.	.	.	.	.	4DD#/)	.	.	.	.	.	.	.	.	.	.	.	.
*2\right	*	*	*	*	*	*	*	*	*	*	*	*	*	*	*	*	*	*	*	*	*	*	*	*	*	*
[2F#\	.	[y2FF#/yy	.	.	.	2d#/	.	.	.	.	.	.	.	[2FF#/	.	.	.	.	.	.	.	.	.	.	.	.
.	.	.	.	.	.	.	.	4f#/	.	.	.	4A/	.	.	.	.	.	.	.	4A/)	.	.	.	.	4ff#\	.
=14	=14	=14	=14	=14	=14	=14	=14	=14	=14	=14	=14	=14	=14	=14	=14	=14	=14	=14	=14	=14	=14	=14	=14	=14	=14	=14
4F#\]	.	(y4FF#/]yy	.	4B/]	.	2e/	.	[>1e	.	4B/]	.	4G#/	.	(4FF#/]	.	1ryy	.	2r	.	(4G#/	1r	.	(4b/]	.	2b\)	.
4E\	.	4EE/)yy	.	4G#/	.	.	.	.	.	4e/	.	4B/	.	4EE/)	.	.	.	.	.	4B/	.	.	4g#/	.	.	.
!	!	!	!	!	!	!	!	!	!	!	!	!	!	!	!	!	!	!	!LO:DY:rj	!	!	!	!	!	!	!
[2G#\	.	[y2GG#/yy	.	4E/	.	2G#/	.	.	.	4g#/	.	[>2e/	.	[2GG#/	.	.	.	([<2G#^\	p	[2e/	.	.	2e/)	.	2r	.
.	.	.	.	4c#/	.	.	.	.	.	4cc#\	.	.	.	.	.	.	.	.	.	.	.	.	.	.	.	.
=15	=15	=15	=15	=15	=15	=15	=15	=15	=15	=15	=15	=15	=15	=15	=15	=15	=15	=15	=15	=15	=15	=15	=15	=15	=15	=15
*	*	*	*	*2\right	*	*	*	*	*	*2\right	*	*	*	*	*	*	*	*	*	*	*	*	*2\right	*	*	*
!	!	!	!	!	!	!	!	!	!	!	!	!	!	!LO:TX:t=Col Vcelle	!	!	!	!	!	!	!	!	!	!	!	!
(4G#\]	.	(4GG#/]	.	(2B\	.	2B/	.	2e/]	.	2b\	.	2e/]	.	(y4GG#/]yy	.	1r	.	4G#\]	.	2e/]	1r	.	(2ee\	.	1r	.
4Gn\	.	4GGn/	.	.	.	.	.	.	.	.	.	.	.	4GGn/yy	.	.	.	4Gn\	.	.	.	.	.	.	.	.
4F#\	.	4FF#/	.	4f#\	.	2A#X/	.	(4f#/	.	2a#X\	.	4d#/	.	4FF#/yy	.	.	.	4F#\	.	4f#/	.	.	4dd#\	.	.	.
!	!	!	!	!	!	!	!	!	!	!	!	!	!	!	!	!	!	!	!	!LO:SIC:v:s=4gn/)	!	!	!	!	!	!
4E\)	.	4EE/)	.	4e\)	.	.	.	4gn/)	.	.	.	4c#/	.	4EE/)yy	.	.	.	4E\	.	4g#/)	.	.	4cc#\)	.	.	.
*	*	*	*	*	*	*	*	*	*	*	*	*	*	*	*	*	*	*	*	*v	*v	*	*	*	*	*
=16	=16	=16	=16	=16	=16	=16	=16	=16	=16	=16	=16	=16	=16	=16	=16	=16	=16	=16	=16	=16	=16	=16	=16	=16	=16
!	!	!	!	!	!	!	!	!	!	!	!	!	!	!	!	!	!	!	!	!	!	!	!	!LO:TX:b:t=P:problem:wymazane nuty	!
[>1BB	.	2.BB/	.	(4e\	.	(4e/	.	(4g#X/	.	(2.b\	.	2.B/	.	2.BB/yy	.	1B 1BB	.	2BB/)	.	(4g#/	.	(2.b\	.	(2.bb/	p
.	.	.	.	4dn\	.	4dn/	.	4f#/	.	.	.	.	.	.	.	.	.	.	.	4f#/	.	.	.	.	.
.	.	.	.	4c#\	.	4c#/	.	2e#X/)	.	.	.	.	.	.	.	.	.	2r	.	2e#X/)	.	.	.	.	.
.	.	4r	.	4B\)	.	4B/)	.	.	.	4dn/)	.	4ddn\	.	4ryy	.	.	.	.	.	.	.	4ddn\)	.	4dddn/	.
!!LO:PB:g=original
=17	=17	=17	=17	=17	=17	=17	=17	=17	=17	=17	=17	=17	=17	=17	=17	=17	=17	=17	=17	=17	=17	=17	=17	=17	=17
*	*	*	*	*	*	*	*	*	*	*	*	*	*	*	*	*^	*	*	*	*^	*	*	*	*	*
1BB_>	.	4A\	.	4A/	.	4A/	.	4f#/	.	2c#/	.	2cc#\	.	1r	.	[1f#	[1BB	.	2r	.	4f#/	2r	.	1cc#	.	2ccc#\	.
.	.	4G#\	.	4G#/	.	4c#/	.	4g#/	.	.	.	.	.	.	.	.	.	.	.	.	4g#/	.	.	.	.	.	.
.	.	4F#\	.	4F#/	.	4f#/	.	2a/	.	[2f#/	.	[2ff#\	.	.	.	.	.	.	[2F#\	.	[2a/	[2f#\	.	.	.	2fff#\	.
.	.	4E\	.	4E/	.	4e/	.	.	.	.	.	.	.	.	.	.	.	.	.	.	.	.	.	.	.	.	.
=18	=18	=18	=18	=18	=18	=18	=18	=18	=18	=18	=18	=18	=18	=18	=18	=18	=18	=18	=18	=18	=18	=18	=18	=18	=18	=18	=18
*rep	*	*	*	*	*	*	*	*	*	*	*	*	*	*	*	*	*	*	*	*	*	*	*	*	*	*	*
1BB_>	.	4D#/	.	4D#/	.	4d#/	.	1A	.	1f#]	.	2.ff#\]	.	1r	.	1f#]	1BB_	.	4F#\]	.	1a]	4f#\]	.	2.b\	.	2.bb\	.
.	.	4C#/	.	4F#/	.	4c#/	.	.	.	.	.	.	.	.	.	.	.	.	4E\	.	.	4e\	.	.	.	.	.
.	.	4BB/	.	4B/	.	2d#/	.	.	.	.	.	.	.	.	.	.	.	.	2D#\	.	.	2d#\	.	.	.	.	.
.	.	4AA/	.	4A/	.	.	.	.	.	.	.	4cc#\	.	.	.	.	.	.	.	.	.	.	.	4cc#\	.	4ccc#\	.
*Xrep	*	*	*	*	*	*	*	*	*	*	*	*	*	*	*	*	*	*	*	*	*	*	*	*	*	*	*
*	*	*	*	*	*	*	*	*	*	*	*	*	*	*	*	*	*	*	*	*	*v	*v	*	*	*	*	*
=19	=19	=19	=19	=19	=19	=19	=19	=19	=19	=19	=19	=19	=19	=19	=19	=19	=19	=19	=19	=19	=19	=19	=19	=19	=19	=19
*rep	*	*	*	*	*	*	*	*	*	*	*	*	*	*	*	*	*rep	*	*	*	*	*	*	*	*	*
1BB_>	.	4GG#/	.	4G#/	.	4e/	.	4B/	.	4g#/	.	2b\	.	1r	.	1e	1BB_	.	4E\	.	4g#/	.	4b\	.	2bb\)	.
.	.	4FF#/	.	4F#/	.	4f#/	.	4A/	.	4a/	.	.	.	.	.	.	.	.	4F#\	.	4a/	.	4a\	.	.	.
.	.	4EE/	.	4E/	.	2g#/	.	2G#/	.	4g#/	.	[2ee\	.	.	.	.	.	.	2G#\	.	2b/	.	2g#\	.	[2eee^\	.
.	.	4DD#/	.	4D#/	.	.	.	.	.	4f#/	.	.	.	.	.	.	.	.	.	.	.	.	.	.	.	.
*Xrep	*	*	*	*	*	*	*	*	*	*	*	*	*	*	*	*	*Xrep	*	*	*	*	*	*	*	*	*
=20	=20	=20	=20	=20	=20	=20	=20	=20	=20	=20	=20	=20	=20	=20	=20	=20	=20	=20	=20	=20	=20	=20	=20	=20	=20	=20
*	*	*	*	*	*	*	*	*	*	*	*	*	*	*	*	*	*	*	*	*	*^	*	*	*	*	*
*rep	*	*	*	*	*	*	*	*	*	*	*	*	*	*	*	*	*rep	*	*	*	*	*	*	*	*	*	*
!	!	!	!	!	!	!	!	!	!	!	!	!	!	!	!	!	!	!	!	!	!	!	!	!LO:TX:a:t=P:problem:pokreślone nuty	!	!	!
1BB_>	.	4CC#/	.	4C#/	.	2.a/	.	2A/	.	4e/	.	4ee\]	.	1r	.	[>1B	1BB_	.	(2.A\	.	4ee/	4e\	.	(2.a/	.	(4eee\]	.
!	!	!	!	!LO:TX:a:t=P:problem:pokreślone nuty	!	!	!	!	!	!	!	!	!	!	!	!	!	!	!	!	!	!	!	!	!	!	!
.	.	4C#/	.	4c#\	.	.	.	.	.	8f#/L	.	8ff#\L	.	.	.	.	.	.	.	.	8ff#/L	8f#\L	.	.	.	8fff#\L	.
.	.	.	.	.	.	.	.	.	.	8e/J	.	8ee\J	.	.	.	.	.	.	.	.	8ee/J	8e\J	.	.	.	8eee\J	.
.	.	4BB/	.	4B\	.	.	.	4a/	.	[2d#/	.	[2dd#\	.	.	.	.	.	.	.	.	[2dd#/	[2d#\	.	.	.	[2ddd#\	.
.	.	4AA/	.	4A\	.	8g#/L	.	8g#/L	.	.	.	.	.	.	.	.	.	.	8G#\L	.	.	.	.	8g#/L	.	.	.
.	.	.	.	.	.	8f#/J	.	8f#/J	.	.	.	.	.	.	.	.	.	.	8F#\J)	.	.	.	.	8f#/J)	.	.	.
*Xrep	*	*	*	*	*	*	*	*	*	*	*	*	*	*	*	*	*Xrep	*	*	*	*	*	*	*	*	*	*
=21	=21	=21	=21	=21	=21	=21	=21	=21	=21	=21	=21	=21	=21	=21	=21	=21	=21	=21	=21	=21	=21	=21	=21	=21	=21	=21	=21
*rep	*	*	*	*	*	*	*	*	*	*	*	*	*	*	*	*rep	*rep	*	*	*	*	*	*	*	*	*	*
1BB_>	.	2GG#/	.	2G#/	.	2e/	.	2g#/	.	4d#/]	.	4dd#\]	.	1r	.	1B_>	1BB_>	.	(2E\	.	4dd#/]	4d#\]	.	(2e/	.	4ddd#\]	.
.	.	.	.	.	.	.	.	.	.	8e/L	.	8ee\L	.	.	.	.	.	.	.	.	8ee/L	8e\L	.	.	.	8eee\L	.
.	.	.	.	.	.	.	.	.	.	8d#/J	.	8dd#\J	.	.	.	.	.	.	.	.	8dd#/J	8d#\J	.	.	.	8ddd#\J	.
.	.	4AA/	.	4A/	.	4f#/	.	4a/	.	[2c#/	.	[2cc#\	.	.	.	.	.	.	4F#\	.	[2cc#/	[2c#\	.	4f#/	.	[2ccc#\	.
.	.	4GG#/	.	4G#/	.	4e/	.	4g#/	.	.	.	.	.	.	.	.	.	.	4E\	.	.	.	.	4e/)	.	.	.
*Xrep	*	*	*	*	*	*	*	*	*	*	*	*	*	*	*	*Xrep	*Xrep	*	*	*	*	*	*	*	*	*	*
=22	=22	=22	=22	=22	=22	=22	=22	=22	=22	=22	=22	=22	=22	=22	=22	=22	=22	=22	=22	=22	=22	=22	=22	=22	=22	=22	=22
*rep	*	*	*	*	*	*	*	*	*	*	*	*	*	*	*	*rep	*rep	*	*	*	*	*	*	*	*	*	*
1BB_>	.	2FF#/	.	2F#/	.	2d#/	.	2f#/	.	4c#/]	.	4cc#\]	.	1r	.	1B_>	1BB_>	.	2D#\	.	4cc#/]	4c#\]	.	(2d#/	.	4ccc#\]	.
.	.	.	.	.	.	.	.	.	.	8d#/L	.	8dd#\L	.	.	.	.	.	.	.	.	8dd#/L	8d#\L	.	.	.	8ddd#\L	.
.	.	.	.	.	.	.	.	.	.	8c#/J	.	8cc#\J	.	.	.	.	.	.	.	.	8cc#/J	8c#\J	.	.	.	8ccc#\J	.
.	.	4GG#/	.	4G#/	.	4e/	.	4g#/	.	[2B/	.	[2b\	.	.	.	.	.	.	4E\	.	[2b/	[>2B\	.	4e/	.	[2bb\	.
.	.	4FF#/	.	4F#/	.	4d#/	.	4f#/	.	.	.	.	.	.	.	.	.	.	4D#\	.	.	.	.	4d#/)	.	.	.
*Xrep	*	*	*	*	*	*	*	*	*	*	*	*	*	*	*	*Xrep	*Xrep	*	*	*	*	*	*	*	*	*	*
=23	=23	=23	=23	=23	=23	=23	=23	=23	=23	=23	=23	=23	=23	=23	=23	=23	=23	=23	=23	=23	=23	=23	=23	=23	=23	=23	=23
*rep	*	*	*	*	*	*	*	*	*	*	*	*	*	*	*	*rep	*rep	*	*	*	*	*	*	*	*	*	*
1BB_>	.	2EE/	.	2E/	.	2c#/	.	2e/	.	4B/]	.	4b\]	.	1r	.	1B_>	1BB_	.	2C#\	.	4b/]	4B\]	.	(2e/	.	4bb\]	.
.	.	.	.	.	.	.	.	.	.	8c#/L	.	8cc#\L	.	.	.	.	.	.	.	.	8cc#/L	8c#\L	.	.	.	8ccc#\L	.
.	.	.	.	.	.	.	.	.	.	8B/J	.	8b\J	.	.	.	.	.	.	.	.	8b/J	8B\J	.	.	.	8bb\J	.
.	.	4FF#/	.	4F#/	.	4d#/	.	4f#/	.	2A/	.	[2a\	.	.	.	.	.	.	4D#\	.	[2a/	4A\	.	4d#/	.	4aa\)	.
.	.	4EE/	.	4E/	.	4c#/	.	4e/	.	.	.	.	.	.	.	.	.	.	4C#\)	.	.	4r	.	4e/	.	4r	.
*Xrep	*	*	*	*	*	*	*	*	*	*	*	*	*	*	*	*Xrep	*Xrep	*	*	*	*	*	*	*	*	*	*
=24	=24	=24	=24	=24	=24	=24	=24	=24	=24	=24	=24	=24	=24	=24	=24	=24	=24	=24	=24	=24	=24	=24	=24	=24	=24	=24	=24
!	!	!	!	!	!	!	!	!	!	!	!	!	!	!	!	!	!	!	!	!	!	!	!LO:DY:a	!	!	!	!
2BB/]	.	2BB/	.	2B/	.	2B/	.	2d#/	.	4a/	.	4a/]	.	1r	.	2B/]	2BB\]	.	2BB/	.	(<4a/]	1r	f	4f#/)	.	1r	.
!	!	!	!	!	!	!	!	!	!	!LO:TX:t=Col 1mo	!	!	!	!	!	!	!	!	!	!	!	!	!	!	!	!	!
.	.	.	.	.	.	.	.	.	.	8g#/Lyy	fy	8g#/L	f	.	.	.	.	.	.	.	8g#/L	.	.	4r	.	.	.
.	.	.	.	.	.	.	.	.	.	8a/Jyy	.	8a/J	.	.	.	.	.	.	.	.	8a/J	.	.	.	.	.	.
2r	.	2r	.	2r	.	2r	.	2r	.	4b/yy	.	4b/	.	.	.	2r	2ryy	.	2r	.	4b/	.	.	2r	.	.	.
.	.	.	.	.	.	.	.	.	.	4a/yy	.	4a/	.	.	.	.	.	.	.	.	4a/)	.	.	.	.	.	.
*	*	*	*	*	*	*	*	*	*	*	*	*	*	*	*	*v	*v	*	*	*	*	*	*	*	*	*	*
=25	=25	=25	=25	=25	=25	=25	=25	=25	=25	=25	=25	=25	=25	=25	=25	=25	=25	=25	=25	=25	=25	=25	=25	=25	=25	=25
!	!	!	!	!	!LO:DY:rj	!	!	!	!	!	!	!	!	!	!	!	!	!	!	!	!	!	!	!LO:DY:a:rj	!	!
1ryy	.	1ryy	.	4.b^\	f	1r	.	1r	.	4g#/yy	.	4g#/	.	1r	.	1r	.	1r	.	(4g#/	1r	.	(4.b\	f	1r	.
.	.	.	.	.	.	.	.	.	.	4f#/yy	.	4f#/	.	.	.	.	.	.	.	4f#/	.	.	.	.	.	.
.	.	.	.	16cc#\LL	.	.	.	.	.	.	.	.	.	.	.	.	.	.	.	.	.	.	16cc#\LL	.	.	.
.	.	.	.	16ddn\JJ	.	.	.	.	.	.	.	.	.	.	.	.	.	.	.	.	.	.	16ddn\JJ	.	.	.
.	.	.	.	4cc#\	.	.	.	.	.	4e/yy	.	4e/	.	.	.	.	.	.	.	4e/	.	.	4cc#\)	.	.	.
.	.	.	.	4b\	.	.	.	.	.	4dn/yy	.	4dn/	.	.	.	.	.	.	.	4d/)	.	.	4b\	.	.	.
*	*	*	*	*	*	*	*	*	*	*	*	*	*	*	*	*	*	*	*	*v	*v	*	*	*	*	*
!!LO:PB:g=original
=26	=26	=26	=26	=26	=26	=26	=26	=26	=26	=26	=26	=26	=26	=26	=26	=26	=26	=26	=26	=26	=26	=26	=26	=26	=26
*	*	*	*	*	*	*	*	*	*	*	*	*	*	*	*	*	*	*clefC4	*	*	*	*	*	*	*
!	!	!	!	!	!LO:DY:rj	!LO:TX:t=Col Flauto	!LO:DY:rj	!LO:TX:t=Col Flauto	!	!	!	!	!	!	!	!	!	!	!LO:DY:rj	!	!	!	!LO:DY:rj	!	!LO:DY:rj
1r	.	1r	.	[1a^	f	4ee\yy	f	4ee\yy	f	4c#/	.	2c#/	.	1r	.	1r	.	(2c#^\	f	4f#/	.	[>1a^	f	4ee\	f
.	.	.	.	.	.	8ddn\Lyy	.	8ddn\Lyy	.	4r	.	.	.	.	.	.	.	.	.	4r	.	.	.	8ddn\L	.
.	.	.	.	.	.	8ee\Jyy	.	8ee\Jyy	.	.	.	.	.	.	.	.	.	.	.	.	.	.	.	8ee\J	.
!	!	!	!	!	!	!	!	!	!	!	!	!	!	!	!	!	!	!LO:SIC:v:s=4dn\	!	!	!	!	!	!	!
.	.	.	.	.	.	4ff#\yy	.	4ff#\yy	.	2r	.	4dn/	.	.	.	.	.	4d#\	.	2r	.	.	.	4ff#\	.
.	.	.	.	.	.	4cc#\yy	.	4cc#\yy	.	.	.	4e/	.	.	.	.	.	4e\	.	.	.	.	.	4cc#\	.
=27	=27	=27	=27	=27	=27	=27	=27	=27	=27	=27	=27	=27	=27	=27	=27	=27	=27	=27	=27	=27	=27	=27	=27	=27	=27
1r	.	1r	.	2a\]	.	4.ddn\yy	.	4.ddn\yy	.	1r	.	4f#/	.	1r	.	1r	.	4f#\	.	1ryy	.	2a/]	.	4.ddn\	.
.	.	.	.	.	.	.	.	.	.	.	.	4A/	.	.	.	.	.	4A\	.	.	.	.	.	.	.
.	.	.	.	.	.	16ee\LLyy	.	16ee\LLyy	.	.	.	.	.	.	.	.	.	.	.	.	.	.	.	16ee\LL	.
.	.	.	.	.	.	16ff#\JJyy	.	16ff#\JJyy	.	.	.	.	.	.	.	.	.	.	.	.	.	.	.	16ff#\JJ	.
.	.	.	.	[2b^\	.	4ee\yy	.	4ee\yy	.	.	.	4G#/	.	.	.	.	.	4G#\	.	.	.	([>2b/	.	4ee\	.
.	.	.	.	.	.	4dd\yy	.	4dd\yy	.	.	.	4e/	.	.	.	.	.	4e\)	.	.	.	.	.	4dd\	.
=28	=28	=28	=28	=28	=28	=28	=28	=28	=28	=28	=28	=28	=28	=28	=28	=28	=28	=28	=28	=28	=28	=28	=28	=28	=28
1r	.	1r	.	4b\]	.	(y4cc#\yy	.	(y4cc#\yy	.	(4A/	.	4A/	.	1r	.	1r	.	(4A\	.	1ryy	.	4b/]	.	(4cc#\	.
.	.	.	.	8a\L	.	4ee\yy	.	4ee\yy	.	4c#/	.	4r	.	.	.	.	.	4c#\	.	.	.	8a/L	.	4ee\	.
.	.	.	.	8g#\J	.	.	.	.	.	.	.	.	.	.	.	.	.	.	.	.	.	8g#/J)	.	.	.
.	.	.	.	4f#\	.	4ddn\yy	.	4ddn\yy	.	4f#/)	.	2r	.	.	.	.	.	4f#\	.	.	.	([2a/	.	4ddn\	.
.	.	.	.	4e\	.	4cc#\)yy	.	4cc#\)yy	.	4e/	.	.	.	.	.	.	.	4e\	.	.	.	.	.	4cc#\)	.
=29	=29	=29	=29	=29	=29	=29	=29	=29	=29	=29	=29	=29	=29	=29	=29	=29	=29	=29	=29	=29	=29	=29	=29	=29	=29
*	*	*	*	*	*	*	*	*	*	*	*	*	*	*	*	*	*	*	*	*^	*	*	*	*	*
!	!	!	!	!	!	!	!	!	!	!	!	!	!	!	!	!	!	!	!	!LO:TX:b:t=2do	!	!	!	!	!	!
1r	.	1r	.	4dn\	.	(y4b\yy	.	(y4b\yy	.	4dn/	.	2r	.	1r	.	1r	.	4dn\	.	1r	2r	.	2a/]	.	(4b\	.
.	.	.	.	4F#/	.	8cc#\Lyy	.	8cc#\Lyy	.	4r	f	.	.	.	.	.	.	4F#/	.	.	.	.	.	.	8cc#\L	.
.	.	.	.	.	.	8ddn\Jyy	.	8ddn\Jyy	.	.	.	.	.	.	.	.	.	.	.	.	.	.	.	.	8ddn\J	.
!	!	!LO:TX:b:t=divisi	!	!	!	!	!	!	!	!	!	!	!	!	!	!	!	!	!	!	!	!	!	!	!	!
.	.	.	.	4E#X/	.	4cc#\yy	.	4cc#\yy	.	[2g#^\	.	[2gg#^\	f	.	.	.	.	4E#X/	.	.	[>2g#^>\	.	2g#/)	.	4cc#\	.
.	f	.	f	4c#\	.	4b\)yy	f	4b\)yy	f	.	.	.	.	.	f	.	f	4c#\)	.	.	.	.	.	.	4b\)	.
=30	=30	=30	=30	=30	=30	=30	=30	=30	=30	=30	=30	=30	=30	=30	=30	=30	=30	=30	=30	=30	=30	=30	=30	=30	=30	=30
*	*	*	*	*	*	*	*	*	*	*	*	*	*	*	*	*^	*	*	*	*	*	*	*	*	*	*
*	*	*	*	*	*	*	*	*2\right	*	*	*	*	*	*	*	*	*	*	*	*	*	*	*	*	*	*	*
!	!	!	!	!	!LO:DY:rj	!LO:TX:t=Col Ob:	!	!	!	!	!	!	!	!	!	!	!	!	!	!LO:DY:rj	!	!	!	!	!LO:DY:rj	!	!
1FF#^^	.	1F# 1FF#^^	.	2F#^^/	f	(y2a/yy	.	2cc#\	.	4g#/]	.	4gg#\]	.	1FF#^^	.	2f#/	2f#\	.	1F#^>	f	2r	4g#\]	f	(2a/	f	4a\	f
!	!	!	!	!	!	!	!	!	!	!	!	!	!	!	!	!	!	!	!	!	!	!LO:TX:a:t=1mo	!	!	!	!	!
.	.	.	.	.	.	.	.	.	.	8a/L	.	8aa\L	.	.	.	.	.	.	.	.	.	8a\L	.	.	.	4cc#\	.
.	.	.	.	.	.	.	.	.	.	8g#/J	.	8gg#\J	.	.	.	.	.	.	.	.	.	8g#\J	.	.	.	.	.
.	.	.	.	4dn\	.	4b/yy	.	4ddn\	.	[2f#/	.	[2ff#\	.	.	.	2r	2ryy	.	.	.	[2ff#/	[2f#\	.	4b/	.	[2ff#\	.
.	.	.	.	4c#\	.	4a/)yy	.	4cc#\	.	.	.	.	.	.	.	.	.	.	.	.	.	.	.	4a/)	.	.	.
*	*	*	*	*	*	*	*	*	*	*	*	*	*	*	*	*v	*v	*	*	*	*v	*v	*	*	*	*	*
=31	=31	=31	=31	=31	=31	=31	=31	=31	=31	=31	=31	=31	=31	=31	=31	=31	=31	=31	=31	=31	=31	=31	=31	=31	=31
1GG#^^	.	1G# 1GG#^^	.	2B\	.	(y2g#/yy	.	2b\	.	4f#/]	.	4ff#\]	.	1GG#^^	.	1r	.	1G#^^	.	4ff#] 4f#/]	.	(2g#/	.	4ff#\]	.
.	.	.	.	.	.	.	.	.	.	8g#/L	.	8gg#\L	.	.	.	.	.	.	.	(8gg#L 8g#/	.	.	.	8gg#\L	.
.	.	.	.	.	.	.	.	.	.	8f#/J	.	8ff#\J	.	.	.	.	.	.	.	8ff#J 8f#/	.	.	.	8ff#\J	.
.	.	.	.	4c#\	.	4a/yy	.	4cc#\	.	[2e/	.	[2ee\	.	.	.	.	.	.	.	[2ee [2e/)	.	4a/	.	[2ee\	.
!	!	!	!	!	!	!	!	!	!	!	!	!	!	!	!	!LO:TX:a:t=(x)	!	!	!	!	!	!	!	!	!
.	.	.	.	4B\	.	4g#/)yy	.	4b\	.	.	.	.	.	.	.	.	f	.	.	.	.	4g#/)	.	.	.
!	!	!	!	!	!	!	!	!	!	!	!	!	!	!	!	!	!	!LO:CL:ed	!	!	!	!	!	!	!
*	*	*	*	*	*	*	*	*	*	*	*	*	*	*	*	*	*	*clefF4	*	*	*	*	*	*	*
=32	=32	=32	=32	=32	=32	=32	=32	=32	=32	=32	=32	=32	=32	=32	=32	=32	=32	=32	=32	=32	=32	=32	=32	=32	=32
!	!	!	!	!	!	!	!	!	!	!LO:TX:t=Col 1mo 8va baſsa	!	!	!	!LO:TX:t=Col CB.	!	!LO:TX:a:t=Corni	!	!LO:TX:t=P:problem:brak zmiany klucza	!	!	!	!	!	!	!
2AA/	.	2A 2AA\	.	2c#/	.	2a/	.	2a/	.	4e/]yy	.	4ee\]	.	2AA/yy	.	1r	.	(2c#^^\	.	4ee] 4e/]	.	(2f#/	.	4ee\]	.
.	.	.	.	.	.	.	.	.	.	8f#/Lyy	.	8ff#\L	.	.	.	.	.	.	.	(8ff#L 8f#/	.	.	.	4r	.
.	.	.	.	.	.	.	.	.	.	8e/Jyy	.	8ee\J	.	.	.	.	.	.	.	8eeJ 8e/	.	.	.	.	.
4BB/	.	4BB/	.	4B/	.	4g#/	.	4g#/	.	4dn/yy	.	4ddn\	.	4BB/yy	.	.	.	4B\	.	4dd 4d/)	.	4g#/	.	2r	.
!	!	!LO:TX:t=Col CB.	!	!	!	!	!	!	!	!	!	!	!	!	!	!	!	!	!	!	!	!LO:TX:b:t=di-mi-nu-en-do.:problem:dynamics with extention lines	!LO:HP:t=di-mi-nu-en-do.	!	!
8C#/L	.	8C#/Lyy	.	4A/	.	4e/	.	4a/	.	4c#/yy	.	4cc#\	.	8C#/Lyy	.	.	.	4A\)	.	4cc# 4c#/	.	4a/)	>	.	.
8Dn/J	.	8Dn/Jyy	.	.	.	.	.	.	.	.	.	.	.	8Dn/Jyy	.	.	.	.	.	.	.	.	.	.	.
=33	=33	=33	=33	=33	=33	=33	=33	=33	=33	=33	=33	=33	=33	=33	=33	=33	=33	=33	=33	=33	=33	=33	=33	=33	=33
*	*	*	*	*	*	*	*	*	*	*	*	*	*	*	*	*	*	*	*	*^	*	*	*	*	*
!	!	!	!	!	!	!	!	!	!	!	!	!	!	!	!	!LO:TX:a:t=Cors:color=red	!	!	!	!	!	!	!	!	!	!
4E\	.	4E\yy	.	4G#/	.	2e/	.	2g#/	.	2B/yy	.	2b\	.	4E\yy	.	1e 1E	.	(4E^^\	.	2b^^/	(>4e\	.	2b^^/	.	1r	.
8F#\L	.	8F#\Lyy	.	8F#/L	.	.	.	.	.	.	.	.	.	8F#\Lyy	.	.	.	8F#\L	.	.	8f#\L	.	.	.	.	.
8G#\J	.	8G#\Jyy	.	8G#/J	.	.	.	.	.	.	.	.	.	8G#\Jyy	.	.	.	8G#\J	.	.	8g#\J)	.	.	.	.	.
!	!	!	!	!	!	!	!	!	!	!LO:TX:b:t=di-min-do.:problem:dynamics with extention lines	!LO:HP:t=di-min-do.	!LO:TX:b:t=di-min-do.:problem:dynamics with extention lines	!LO:HP:t=di-min-do.	!	!	!	!	!	!	!	!	!	!	!	!	!
4A^^\	.	4A^^\yy	.	4A^/	.	4r	.	4f#/	.	[y2c#/yy	>	[2cc#\	>	4A^^\yy	.	.	.	4A\)	.	4a/	4a^>\	.	[>2cc#/	.	.	.
4E^^\	.	4E^^\yy	.	4G#^/	.	4e^/	.	4g#/	.	.	.	.	.	4E^^\yy	.	.	.	4E^\	.	4g#/	4e^>\	.	.	.	.	.
=34	=34	=34	=34	=34	=34	=34	=34	=34	=34	=34	=34	=34	=34	=34	=34	=34	=34	=34	=34	=34	=34	=34	=34	=34	=34	=34
*	*	*	*	*	*	*	*	*	*	*	*	*	*	*	*	*^	*	*	*	*	*	*	*	*	*	*
4F#^^\	.	4F#^^\yy	.	2A^/	.	4f#^/	.	2a/	.	2c#/]yy	.	2cc#\]	.	4F#^^\yy	.	1f#^^	2r	.	4F#^\	.	2a/	4f#^\	.	2cc#/]	.	1r	.
4C#^^\	.	4C#^^\yy	.	.	.	4c#^/	.	.	.	.	.	.	.	4C#^^\yy	.	.	.	.	4C#^\	.	.	4c#^\	.	.	.	.	.
!	!	!	!	!	!LO:HP:t=dimin	!	!	!	!	!	!	!	!	!	!	!	!	!	!	!	!	!	!	!	!	!	!
4Dn^^\	.	4Dn^^\yy	.	8F#/L	>	4dn^/	.	8f#/L	.	[y2B/yy	.	[2b\	.	4Dn^^\yy	.	.	2B^^\	.	4Dn^\	.	(8f#/L	4d^\	.	[>2b/	.	.	.
.	.	.	.	8A/	.	.	.	8a/	.	.	.	.	.	.	.	.	.	.	.	.	8a/	.	.	.	.	.	.
4BB^^/	.	4BB^^/yy	.	8G#/	.	4B^/	.	8g#/	.	.	.	.	.	4BB^^/yy	.	.	.	.	4BB^\	.	8g#/	4B^\	.	.	.	.	.
.	.	.	.	8F#/J	.	.	.	8f#/J	.	.	.	.	.	.	.	.	.	.	.	.	8f#/J)	.	.	.	.	.	.
!!LO:PB:g=original
=35	=35	=35	=35	=35	=35	=35	=35	=35	=35	=35	=35	=35	=35	=35	=35	=35	=35	=35	=35	=35	=35	=35	=35	=35	=35	=35	=35
!	!LO:HP:t=dimin.	!	!LO:HP:t=dimin.	!	!	!	!	!	!	!	!	!	!	!	!LO:HP:t=dimin.	!	!	!LO:HP:t=dimin.	!	!LO:HP:t=dimin.	!	!	!LO:HP:t=dinim.	!LO:TX:t=P:problem:brak zakończenia łuku	!	!	!LO:DY:rj
2C#/	>	2C#/yy	>	4E/	>	2c#/	>	4e/	>	2B/]yy	.	2b\]	.	2C#/yy	>	2g# 2e\	2ryy	>	1C#	>	(4e/	1c#	>	2b/]	.	(4ee\	p
.	.	.	.	8F#/L	.	.	.	8f#/L	.	.	.	.	.	.	.	.	.	.	.	.	8f#/L	.	.	.	.	8ff#\L	.
.	.	.	.	8Gn/J	.	.	.	8gn/J	.	.	.	.	.	.	.	.	.	.	.	.	8gX/J	.	.	.	.	8ggn\J	.
2FF#/	.	2FF#/yy	.	4F#/	]	2f#/	]	4f#/	.	2A#X/yy	.	2a#X\	.	2FF#/yy	.	2f#/	2f#\	.	.	.	4f#/	.	.	2a#X/	.	4ff#\	.
!	!	!	!	!	!	!	!	!	!	!	!	!	!	!	!	!	!	!	!	!	!	!	!LO:DY:t=p.	!	!	!	!
.	.	.	.	4E/	p	.	p	4e/	] p	.	.	.	.	.	.	.	.	.	.	.	4e/)	.	p	.	.	4ee\)	.
=36	=36	=36	=36	=36	=36	=36	=36	=36	=36	=36	=36	=36	=36	=36	=36	=36	=36	=36	=36	=36	=36	=36	=36	=36	=36	=36	=36
!	!	!	!	!	!	!	!	!	!	!	!	!	!	!	!	!	!	!LO:DY:rj	!	!	!	!	!	!LO:TX:t=Col V. 1mo	!	!	!
(>2.BB/	.	(y>2.BB/yy	.	(4F#/	.	(2.B/	.	(>2.d#/	.	(y4An/yy	.	(4an\	.	(y>2.BB/yy	.	1f#	1B	p	2.BB/	p	(4d#/	4d#\	.	(y4an\yy	.	4dd#\	.
.	.	.	.	4B/	.	.	.	.	.	8B/Lyy	.	8b\L	.	.	.	.	.	.	.	.	4f#/	4r	.	8b\Lyy	.	4r	.
.	.	.	.	.	.	.	.	.	.	8c#/J)yy	.	8cc#\J)	.	.	.	.	.	.	.	.	.	.	.	8cc#\J)yy	.	.	.
.	.	.	.	4F#/	.	.	.	.	.	(y4B/yy	]	(4b\	]	.	.	.	.	pp	.	.	[2b/)	2r	.	(y4b\yy	]	[2bb\	.
8C#/L	.	8C#/Lyy	.	8E/L	.	8c#/L	.	8e/L	.	4A/)yy	.	4a\)	.	8C#/Lyy	.	.	.	.	8C#/L	.	.	.	.	4a\)yy	.	.	.
!	!LO:DY:t=pp.	!	!LO:DY:t=pp.	!	!	!	!	!	!	!	!	!	!	!	!LO:DY:t=pp.	!	!	!	!	!	!	!	!	!	!	!	!
8D#/J)	pp	8D#/J)yy	ppy	8F#/J)	.	8d#/J)	.	8f#/J)	.	.	.	.	.	8D#/J)yy	ppy	.	.	.	8D#/J	.	.	.	.	.	.	.	.
=37	=37	=37	=37	=37	=37	=37	=37	=37	=37	=37	=37	=37	=37	=37	=37	=37	=37	=37	=37	=37	=37	=37	=37	=37	=37	=37	=37
*	*	*	*	*	*	*	*	*	*	*	*	*	*	*	*	*	*2\left	*	*	*	*	*	*	*	*	*	*
(4E/	.	(y4E/yy	.	(4G#/	.	(4e/	.	(4e/	.	(4g#/	.	(4g#\	.	(y4E/yy	.	4g#/	2B\	.	(4E/	.	(4b/]	4e\	.	(y4g#\yy	.	2bb\]	.
4BB/	.	4BB/yy	.	4B\	.	4B/	.	4d#/	.	4f#/	.	4b\)	.	4BB/yy	.	4f#/	.	.	4D#/	.	4dd#/	4f#\	.	4b\)yy	.	.	.
*	*	*	*	*	*	*	*	*	*	*	*	*	*	*	*	*	*2\right	*	*	*	*	*	*	*	*	*	*
4C#/	.	4C#/yy	.	[2e\)	.	4c#/	.	4c#/	.	4e/	.	[2ee\	.	4C#/yy	.	2e/	[2e\	.	4C#/	.	4cc#/	4e\	.	[y2ee\yy	.	[2eee\	.
4GG#/)	.	4GG#/)yy	.	.	.	4G#/)	.	4B/)	.	4d#/)	.	.	.	4GG#/)yy	.	.	.	.	4BB/)	.	4b/	4d#\	.	.	.	.	.
=38	=38	=38	=38	=38	=38	=38	=38	=38	=38	=38	=38	=38	=38	=38	=38	=38	=38	=38	=38	=38	=38	=38	=38	=38	=38	=38	=38
2AA/	.	2AA/yy	.	(4e\]	.	2A/	.	2A/	.	2c#/	.	(4ee\]	.	2AA/	.	2f#/	2e\]	.	(2C#/	.	4cc#/)	4c#\	.	(y4ee\]yy	.	(4eee\]	.
.	.	.	.	8d#\L	.	.	.	.	.	.	.	8dd#\L	.	.	.	.	.	.	.	.	4f#/	8d#\L	.	8dd#\Lyy	.	8ddd#\L	.
.	.	.	.	8c#\J	.	.	.	.	.	.	.	8cc#\J	.	.	.	.	.	.	.	.	.	8e\J	.	8cc#\Jyy	.	8ccc#\J	.
2BB/	.	2BB/yy	.	4B/	.	2B/	.	2f#/	.	2d#/	.	4b\	.	8BB/	.	2f#/	2B\	.	2BB/)	.	2dd#/	2d#\	.	4b\yy	.	4bb\	.
.	.	.	.	.	.	.	.	.	.	.	.	.	.	8r	.	.	.	.	.	.	.	.	.	.	.	.	.
.	.	.	.	4A/)	.	.	.	.	pp	.	.	4a\)	.	4r	.	.	.	.	.	pp	.	.	pp	4a\)yy	.	4aa\)	pp
*	*	*	*	*	*	*	*	*	*	*	*	*	*	*	*	*v	*v	*	*	*	*	*	*	*	*	*	*
=39	=39	=39	=39	=39	=39	=39	=39	=39	=39	=39	=39	=39	=39	=39	=39	=39	=39	=39	=39	=39	=39	=39	=39	=39	=39	=39
!	!	!	!	!	!	!LO:TX:t=Col 1mo 2do	!	!	!	!LO:TX:t=Col 1mo	!LO:DY:t=pp.	!	!LO:DY:t=pp.	!	!	!	!	!	!	!	!	!	!	!	!	!
(>2BB#X/	.	(2D#/	.	(>[>1G#	pp	(y>2d#/yy	.	(>2d#/	.	(y>[y>1g#yy	ppy	(>[>1g#	pp	1r	.	4g# 4G#\	.	(>2BB#X/	.	(2f#/	1r	.	4g#/	.	([1gg#	.
.	.	.	.	.	.	.	.	.	.	.	.	.	.	.	.	4r	.	.	.	.	.	.	4r	.	.	.
2C#/	.	2C#/	.	.	.	2c#/yy	.	2c#/	.	.	.	.	.	.	.	2r	.	2C#/	.	2e/	.	.	2r	.	.	.
=40	=40	=40	=40	=40	=40	=40	=40	=40	=40	=40	=40	=40	=40	=40	=40	=40	=40	=40	=40	=40	=40	=40	=40	=40	=40	=40
2GG#/	.	2BBn/	.	2.G#/]	.	2Bn/yy	.	2Bn/	.	2.g#/]yy	.	2.g#/]	.	1r	.	1r	.	2D#/	.	2d#/	1r	.	1r	.	2.gg#\]	.
2AA/)	.	2AA/)	.	.	.	2A/)yy	.	2A/)	.	.	.	.	.	.	.	.	.	2C#/)	.	2c#/)	.	.	.	.	.	.
.	.	.	.	8F#/L	.	.	.	.	.	8f#/Lyy	.	8f#/L	.	.	.	.	.	.	.	.	.	.	.	.	8ff#\L	.
.	.	.	.	8E/J)	.	.	.	.	.	8e/J)yy	.	8e/J)	.	.	.	.	.	.	.	.	.	.	.	.	8ee\J)	.
*	*	*	*	*	*	*	*	*	*	*	*	*	*	*	*	*	*	*	*	*v	*v	*	*	*	*	*
=41	=41	=41	=41	=41	=41	=41	=41	=41	=41	=41	=41	=41	=41	=41	=41	=41	=41	=41	=41	=41	=41	=41	=41	=41	=41
(2E\	.	2BB/	.	[>1E	.	(y2G#/yy	.	(2G#/	.	(y>[y>1eyy	.	(>[>1e	.	1r	.	1r	.	(>2BB/	.	(>2B/	.	1r	.	([1ee	.
2AA/	.	(>2C# 2EE/	.	.	.	2A/yy	.	2A/	.	.	.	.	.	.	.	.	.	2C#/	.	2A/	.	.	.	.	.
=42	=42	=42	=42	=42	=42	=42	=42	=42	=42	=42	=42	=42	=42	=42	=42	=42	=42	=42	=42	=42	=42	=42	=42	=42	=42
2GG#/	.	2BB/)	.	(2.E/]	.	2B/yy	.	2B/	.	2.e/]yy	.	2.e/]	.	1r	.	1r	.	2BB/	.	2G#/	.	1r	.	2.ee\]	.
2AA/)	.	2EE/	.	.	.	2A/)yy	.	2A/)	.	.	.	.	.	.	.	.	.	2AA/)	.	2A/)	.	.	.	.	.
.	.	.	.	8D#/L	.	.	.	.	.	8d#/Lyy	.	8d#/L	.	.	.	.	.	.	.	.	.	.	.	8dd#\L	.
.	.	.	.	8C#/J)	.	.	.	.	.	8c#/J)yy	.	8c#/J)	.	.	.	.	.	.	.	.	.	.	.	8cc#\J)	.
!!LO:PB:g=original
=43	=43	=43	=43	=43	=43	=43	=43	=43	=43	=43	=43	=43	=43	=43	=43	=43	=43	=43	=43	=43	=43	=43	=43	=43	=43
!	!	!	!	!	!	!	!LO:DY:a	!	!LO:DY:a	!	!LO:DY:a	!	!LO:DY:a	!	!	!	!	!	!	!	!	!	!	!	!
1E	ppp	1E	ppp	1E	ppp	(y1G#yy	pppy	(1G#	ppp	(y1Byy	pppy	(1B	ppp	1ryy	.	1ryy	.	1ryy	.	1ryy	.	1ryy	.	[1b	.
=44	=44	=44	=44	=44	=44	=44	=44	=44	=44	=44	=44	=44	=44	=44	=44	=44	=44	=44	=44	=44	=44	=44	=44	=44	=44
2E\	.	2E\	.	2E/	.	2B'/yy	.	2B'/	.	2B'/yy	.	2B'/	.	1ryy	.	1ryy	.	1ryy	.	1ryy	.	1ryy	.	1b_	.
2E\	.	2F#\	.	2E/	.	2A'/)yy	.	2A'/)	.	2B'/)yy	.	2B'/)	.	.	.	.	.	.	.	.	.	.	.	.	.
=45	=45	=45	=45	=45	=45	=45	=45	=45	=45	=45	=45	=45	=45	=45	=45	=45	=45	=45	=45	=45	=45	=45	=45	=45	=45
1E	.	(1E^<	.	(>1Gn 1E^>	.	(y>1Gn^>yy	.	(>1Gn^>	.	(y1Byy	.	(1B	.	1ryy	.	1ryy	.	1ryy	.	1ryy	.	1ryy	.	4b\]	.
.	.	.	.	.	.	.	.	.	.	.	.	.	.	.	.	.	.	.	.	.	.	.	.	4r	.
.	.	.	.	.	.	.	.	.	.	.	.	.	.	.	.	.	.	.	.	.	.	.	.	2r	.
=46	=46	=46	=46	=46	=46	=46	=46	=46	=46	=46	=46	=46	=46	=46	=46	=46	=46	=46	=46	=46	=46	=46	=46	=46	=46
2E\	.	2BB'/)	.	2D#'/	.	2A'/yy	.	2A'/	.	2B'/yy	.	2B'/	.	1ryy	.	1ryy	.	1ryy	.	1ryy	.	1ryy	.	1r	.
2E\	.	2BB/	.	2C#'/)	.	2G#'/)yy	.	2G#'/)	.	2B'/)yy	.	2B'/)	.	.	.	.	.	.	.	.	.	.	.	.	.
=47	=47	=47	=47	=47	=47	=47	=47	=47	=47	=47	=47	=47	=47	=47	=47	=47	=47	=47	=47	=47	=47	=47	=47	=47	=47
1BB;	.	1BB;	.	1D#;	.	1B;yy	.	1B;	.	1B;yy	.	1B;	.	1r;	.	1r;	.	1r;	.	1r;	.	1r;	.	1r;	.
==	==	==	==	==	==	==	==	==	==	==	==	==	==	==	==	==	==	==	==	==	==	==	==	==	==
*-	*-	*-	*-	*-	*-	*-	*-	*-	*-	*-	*-	*-	*-	*-	*-	*-	*-	*-	*-	*-	*-	*-	*-	*-	*-
!!!system-decoration: (<s1,s2,s3,s4,s5,s6>{s7,s8}{s9,s10}s11,s12,s13)
!!!RDF**kern: > = above
!!!RDF**kern: < = below
!!!ENC: Marta Lawrence
!!!END: 2021-07-23
!!!ENC: Katarzyna Serwa
!!!END: 2021-08-07
